X:1
T:In Memory of the Youngest Shipley
M:6/8
L:1/8
Q:80
C:R. MacNeil
S:Slow Air
K:HP
e[|
{g}A2{g}c{gef}e2c|
{g}B2{GdG}c{gBd}B{G}A2|
{g}ce2{ag}a2e|  !
{g}f2a{fg}fe2{gfg}f2c{gef}e2c|
{gBd}B2{G}A{g}B{GdG}c2|
{gef}e2c{gfg}f2c|  !
{g}B2{GdG}c{gBd}B{G}A2|] [|
{g}ce2{A}e2f|
{gef}e2A{g}ce2|  !
{g}fa2{g}a2e|
{gfg}f2aef2{g}e2f{gef}e2c|
{gBd}B2{G}A{g}B{GdG}c2|  !
{gef}e2c{gfg}f2c|
{g}B2{GdG}c{gcd}c{e}B2|]

